X:2546
T:Cantar de Ronda (CT 084)
R:Ronda
C:Tradicional
S:Música Tradicional Asturiana, (C) Tello & Tito. Asturies, 2001.
S:http://pagina.de/MusTradAst <telloytito@asturies.org>
N:Canción de Ronda, dictada por Alfredo García Muñiz, de diez y ocho años, de Llanuces, ayuntamiento de Quirós.
O:Llanuces (Quirós)
A:Asturies
Z:Cancioneru de Torner 084
M:3/4
L:1/8
Q:1/4=80
W:Levántate, morenita,
W:levántate, resalada,
W:levántate, morenita,
W:que ya viene la mañana,
W:levántate.
K:C
c
|_e2 d2 ed/c/|B/GA/ BB cc/B/|(d3/2_e/4d/4) c2 z c|
_e2 d2 ed/c/|B/GA/ BB cc/B/|dd/c/ B2 A2|G4 z2||


